svg/weather_partly_rainy.svg

<svg xmlns="http://www.w3.org/2000/svg" viewBox="0 0 24 24"><path d="M12.75 4.47c2.35 1.03 3.6 3.56 3.17 5.99A6 6 0 0 1 18 15v.17a3 3 0 0 1 1-.17 3 3 0 0 1 3 3 3 3 0 0 1-3 3h-2s-1 0-1-1 1-1 1-1h2a1 1 0 0 0 1-1 1 1 0 0 0-1-1h-3v-2a4 4 0 0 0-4-4 4 4 0 0 0-4 4H6a2 2 0 0 0-2 2 2 2 0 0 0 2 2h1s1 0 1 1-1 1-1 1H6a4 4 0 0 1-4-4 4 4 0 0 1 4-4h.27C5 11.45 4.6 9.24 5.5 7.25c1.22-2.75 4.47-4.01 7.25-2.78m-.82 1.83c-1.77-.8-3.84.01-4.62 1.77-.46 1.02-.38 2.15.1 3.06A5.99 5.99 0 0 1 12 9c.7 0 1.38.12 2 .34a3.51 3.51 0 0 0-2.07-3.04m1.62-3.67c-.55-.23-1.1-.4-1.67-.51l2.49-1.3.9 2.89c-.51-.42-1.08-.78-1.72-1.08m-7.46.81c-.49.35-.92.75-1.29 1.19l.11-2.81 2.96.68c-.62.21-1.22.53-1.78.94M18 8.71c-.09-.59-.22-1.16-.41-1.71l2.38 1.5-2.05 2.23c.11-.65.13-1.33.08-2.02M3.04 10.3c.07.6.21 1.17.39 1.7l-2.37-1.5L3.1 8.28c-.1.65-.13 1.33-.06 2.02M12 18.91c.59.91 1 1.72 1 2.09a1 1 0 0 1-1 1 1 1 0 0 1-1-1c0-.37.41-1.18 1-2.09m0-3.29S9 19 9 21a3 3 0 0 0 3 3 3 3 0 0 0 3-3c0-2-3-5.38-3-5.38"/></svg>

<?xml version="1.0" encoding="UTF-8"?><!DOCTYPE svg PUBLIC "-//W3C//DTD SVG 1.1//EN" "http://www.w3.org/Graphics/SVG/1.1/DTD/svg11.dtd"><svg xmlns="http://www.w3.org/2000/svg" xmlns:xlink="http://www.w3.org/1999/xlink" version="1.1" id="mdi-weather-partly-rainy" width="24" height="24" viewBox="0 0 24 24"><path d="M12.75,4.47C15.1,5.5 16.35,8.03 15.92,10.46C17.19,11.56 18,13.19 18,15V15.17C18.31,15.06 18.65,15 19,15A3,3 0 0,1 22,18A3,3 0 0,1 19,21H17C17,21 16,21 16,20C16,19 17,19 17,19H19A1,1 0 0,0 20,18A1,1 0 0,0 19,17H16V15A4,4 0 0,0 12,11A4,4 0 0,0 8,15H6A2,2 0 0,0 4,17A2,2 0 0,0 6,19H7C7,19 8,19 8,20C8,21 7,21 7,21H6A4,4 0 0,1 2,17A4,4 0 0,1 6,13H6.27C5,11.45 4.6,9.24 5.5,7.25C6.72,4.5 9.97,3.24 12.75,4.47M11.93,6.3C10.16,5.5 8.09,6.31 7.31,8.07C6.85,9.09 6.93,10.22 7.41,11.13C8.5,9.83 10.16,9 12,9C12.7,9 13.38,9.12 14,9.34C13.94,8.06 13.18,6.86 11.93,6.3M13.55,2.63C13,2.4 12.45,2.23 11.88,2.12L14.37,0.82L15.27,3.71C14.76,3.29 14.19,2.93 13.55,2.63M6.09,3.44C5.6,3.79 5.17,4.19 4.8,4.63L4.91,1.82L7.87,2.5C7.25,2.71 6.65,3.03 6.09,3.44M18,8.71C17.91,8.12 17.78,7.55 17.59,7L19.97,8.5L17.92,10.73C18.03,10.08 18.05,9.4 18,8.71M3.04,10.3C3.11,10.9 3.25,11.47 3.43,12L1.06,10.5L3.1,8.28C3,8.93 2.97,9.61 3.04,10.3M12,18.91C12.59,19.82 13,20.63 13,21A1,1 0 0,1 12,22A1,1 0 0,1 11,21C11,20.63 11.41,19.82 12,18.91M12,15.62C12,15.62 9,19 9,21A3,3 0 0,0 12,24A3,3 0 0,0 15,21C15,19 12,15.62 12,15.62Z" /></svg>
